X: 12
T:Eboulements, Reel des
M:C
L:1/8
C:Traditional
S:La Bottine Souriante
R:4/4
Q:300
K:A
eg|"A"aAAA cAec|"Bm"Bcde "E"fefg|"A"aAAA "F#m"cAec|"D"fd"E"ge "A"aefg|
"A"aAAA cAec|"Bm"Bcde "E"fefg|"D"agfe "Bm"fedc|"E"defg "A"a2 ed|
"A"cAEA cAec|"E"Bcde f2 ed|"A"cAEA "F#m"cAec|"D"fd"E"ge |"A"a2 ed|
"A"cAEA cAec|"E"Bcde fefg|"D"agfe "Bm"fedc|"E"defg "A"a2 AF|:!
"A"FAAA cABA|"E"GABc d2 cd|"E"GBBB GBBB|GBBB "A"A2 AF|
"A"FAAA cABA|"E"GABc defg|"D"agfe "Bm"fedc|"E"defg "A"a2 AF:|
